X:1
T: The Countess of Fife
C:Alexander Walker
R:Strathspey
Q: 128
K:A
M:4/4
L:1/16
|:A,2|CE3 E3A B3A B3c|A3B dcBA BB,3 B,3A,|CE3 E3F A3B c3e|fgaf e3G A6A,2|
CE3 E3A B3A B3c|A3B dcBA BB,3 B,3A,|CE3 E3F A3B c3e|fgaf e3G A6f2|
e3A dcBA eA3 A3f|e3A dcBA GB3 B3d|e3A dcBA d3e f3e|fa3 e3f c3A A3f|
e2AA a2AA g2AA f2AA|e3A dcBA GB3 B3g|agfe fa3 ef3 ce3|B3E GABG A6:|
